austria/municipalities/41517.svg

<?xml version="1.0" encoding="UTF-8"?>
<!DOCTYPE svg PUBLIC "-//W3C//DTD SVG 1.1//EN" "http://www.w3.org/Graphics/SVG/1.1/DTD/svg11.dtd">
<svg xmlns="http://www.w3.org/2000/svg" version="1.1" width="166px" height="207px" style="shape-rendering:geometricPrecision; text-rendering:geometricPrecision; image-rendering:optimizeQuality; fill-rule:evenodd; clip-rule:evenodd" xmlns:xlink="http://www.w3.org/1999/xlink">
<g><path style="opacity:1" fill="#000000" d="M -0.5,-0.5 C 54.8333,-0.5 110.167,-0.5 165.5,-0.5C 165.5,44.1667 165.5,88.8333 165.5,133.5C 157.475,172.524 134.142,196.858 95.5,206.5C 86.8333,206.5 78.1667,206.5 69.5,206.5C 30.0061,196.67 6.67281,171.67 -0.5,131.5C -0.5,87.5 -0.5,43.5 -0.5,-0.5 Z"/></g>
<g><path style="opacity:1" fill="#fe9900" d="M 3.5,3.5 C 56.1667,3.5 108.833,3.5 161.5,3.5C 161.5,19.1667 161.5,34.8333 161.5,50.5C 108.833,50.5 56.1667,50.5 3.5,50.5C 3.5,34.8333 3.5,19.1667 3.5,3.5 Z"/></g>
<g><path style="opacity:1" fill="#0f0401" d="M 17.5,13.5 C 21.5051,13.5565 25.0051,14.8899 28,17.5C 29.6768,16.4841 31.3435,15.4841 33,14.5C 35.3984,15.9994 38.0651,16.6661 41,16.5C 45.2994,15.5706 49.6327,14.5706 54,13.5C 58.1853,14.3376 62.3519,15.3376 66.5,16.5C 68.7544,16.0694 70.9211,15.4028 73,14.5C 74.9711,14.4683 76.4711,15.3016 77.5,17C 80.2241,17.2695 82.8908,17.7695 85.5,18.5C 86.646,17.8551 87.646,17.0217 88.5,16C 99.8333,15.3333 111.167,15.3333 122.5,16C 134.661,24.5809 146.994,32.9143 159.5,41C 134.043,45.8211 109.377,43.3211 85.5,33.5C 82.9135,32.52 80.2469,32.1866 77.5,32.5C 77.27,35.4648 75.6034,36.7981 72.5,36.5C 70.3887,36.5142 68.5553,35.8475 67,34.5C 62.8092,36.1311 58.4758,37.1311 54,37.5C 49.4158,36.8035 44.9158,35.8035 40.5,34.5C 37.6801,34.578 35.0134,35.2447 32.5,36.5C 29.956,34.2617 27.2893,34.095 24.5,36C 11.1555,37.8288 6.15551,32.3288 9.5,19.5C 11.5174,16.5057 14.1841,14.5057 17.5,13.5 Z"/></g>
<g><path style="opacity:1" fill="#cb0000" d="M 52.5,15.5 C 53.8197,18.428 54.4864,21.7614 54.5,25.5C 54.1667,28.8333 53.8333,32.1667 53.5,35.5C 52.5033,28.8665 52.17,22.1998 52.5,15.5 Z"/></g>
<g><path style="opacity:1" fill="#cb0000" d="M 14.5,16.5 C 17.8499,16.335 21.1832,16.5017 24.5,17C 25,17.5 25.5,18 26,18.5C 26.6667,23.1667 26.6667,27.8333 26,32.5C 17.6144,37.3101 12.1144,34.9768 9.5,25.5C 9.92118,21.7603 11.5878,18.7603 14.5,16.5 Z"/></g>
<g><path style="opacity:1" fill="#cb0000" d="M 32.5,16.5 C 33.1174,16.6107 33.6174,16.944 34,17.5C 34.4994,23.1569 34.6661,28.8236 34.5,34.5C 33.1667,34.5 31.8333,34.5 30.5,34.5C 29.9469,28.2079 30.6136,22.2079 32.5,16.5 Z"/></g>
<g><path style="opacity:1" fill="#cb0000" d="M 48.5,16.5 C 49.8182,19.2575 50.4848,22.4242 50.5,26C 50.3333,29.1667 50.1667,32.3333 50,35.5C 46.5252,33.1824 42.6918,32.1824 38.5,32.5C 38.5,27.8333 38.5,23.1667 38.5,18.5C 41.1873,18.6641 43.854,18.4974 46.5,18C 47.4158,17.7216 48.0825,17.2216 48.5,16.5 Z"/></g>
<g><path style="opacity:1" fill="#cb0000" d="M 55.5,16.5 C 58.8826,16.2572 62.0492,16.9239 65,18.5C 65.4993,23.4889 65.6659,28.4889 65.5,33.5C 62.1667,34.1667 58.8333,34.8333 55.5,35.5C 55.5,29.1667 55.5,22.8333 55.5,16.5 Z"/></g>
<g><path style="opacity:1" fill="#cb0000" d="M 70.5,16.5 C 72.1439,16.2865 73.6439,16.6198 75,17.5C 75.4994,23.1569 75.6661,28.8236 75.5,34.5C 73.5328,34.7394 71.6995,34.4061 70,33.5C 69.2599,27.7821 69.4265,22.1154 70.5,16.5 Z"/></g>
<g><path style="opacity:1" fill="#003266" d="M 90.5,17.5 C 100.839,17.3335 111.172,17.5002 121.5,18C 132.514,24.8395 143.181,32.1728 153.5,40C 130.538,42.5443 108.205,40.0443 86.5,32.5C 86.7892,28.8936 86.4558,25.3936 85.5,22C 87.6605,21.0041 89.3272,19.5041 90.5,17.5 Z"/></g>
<g><path style="opacity:1" fill="#003266" d="M 77.5,19.5 C 79.8568,19.3367 82.1902,19.5034 84.5,20C 83.9288,21.2051 83.2621,22.3717 82.5,23.5C 80.1769,22.2798 78.8435,23.1131 78.5,26C 80.039,29.0072 81.8723,29.1739 84,26.5C 84.4935,28.1341 84.6602,29.8008 84.5,31.5C 82.1667,31.5 79.8333,31.5 77.5,31.5C 77.5,27.5 77.5,23.5 77.5,19.5 Z"/></g>
<g><path style="opacity:1" fill="#000000" d="M 106.5,19.5 C 109.187,19.3359 111.854,19.5026 114.5,20C 117.15,22.0821 116.816,23.7488 113.5,25C 109.619,26.0585 106.619,24.8918 104.5,21.5C 105.243,20.8182 105.909,20.1515 106.5,19.5 Z"/></g>
<g><path style="opacity:1" fill="#003266" d="M 107.5,22.5 C 109.628,21.3709 111.961,21.2042 114.5,22C 112.214,23.6636 109.881,23.8303 107.5,22.5 Z"/></g>
<g><path style="opacity:1" fill="#003266" d="M 3.5,53.5 C 56.1667,53.5 108.833,53.5 161.5,53.5C 161.667,81.1687 161.5,108.835 161,136.5C 157.309,156.044 147.809,172.211 132.5,185C 113.817,200.007 92.4834,205.673 68.5,202C 39.4354,195.267 19.2687,178.101 8,150.5C 6.24135,145.289 4.90801,139.956 4,134.5C 3.50003,107.502 3.33336,80.5021 3.5,53.5 Z"/></g>
<g><path style="opacity:1" fill="#000000" d="M 82.5,58.5 C 86.548,58.4411 89.7146,60.1078 92,63.5C 92.3333,72.8333 92.6667,82.1667 93,91.5C 93.4709,93.2464 94.1376,94.913 95,96.5C 96.1982,92.7863 98.5315,91.7863 102,93.5C 103.063,95.9162 103.896,98.4162 104.5,101C 104.241,102.261 103.574,103.261 102.5,104C 106.5,104.667 110.5,104.667 114.5,104C 120.285,101.96 126.119,100.127 132,98.5C 135.082,98.7485 136.582,100.415 136.5,103.5C 139.323,103.025 141.323,104.025 142.5,106.5C 140.135,110.04 139.968,113.707 142,117.5C 142.5,125.159 142.666,132.826 142.5,140.5C 133.167,140.5 123.833,140.5 114.5,140.5C 113.782,146.65 112.449,152.65 110.5,158.5C 108.167,158.5 105.833,158.5 103.5,158.5C 103.298,162.46 104.298,165.96 106.5,169C 103.156,181.54 95.1556,187.04 82.5,185.5C 69.6313,186.993 61.6313,181.327 58.5,168.5C 60.18,165.429 60.8467,162.096 60.5,158.5C 58.2075,158.756 56.0408,158.423 54,157.5C 52.2778,152.568 50.4445,147.734 48.5,143C 40.822,142.976 33.1553,143.476 25.5,144.5C 22.6364,144.614 19.9698,144.114 17.5,143C 18.1777,139.113 19.1777,135.28 20.5,131.5C 16.8807,123.831 15.8807,115.831 17.5,107.5C 26.7538,109.231 36.0872,109.731 45.5,109C 49.629,105.065 54.629,103.398 60.5,104C 59.5,103.167 58.5,102.333 57.5,101.5C 59.1965,99.4404 60.3631,97.1071 61,94.5C 63.6667,91.8333 66.3333,91.8333 69,94.5C 70.1498,85.2094 70.8165,75.8761 71,66.5C 71.4652,65.0692 72.2986,63.9025 73.5,63C 76.462,61.15 79.462,59.65 82.5,58.5 Z"/></g>
<g><path style="opacity:1" fill="#fefffe" d="M 79.5,61.5 C 89.6064,61.185 90.6064,63.685 82.5,69C 79.4254,70.6024 76.4254,70.6024 73.5,69C 72.3595,68.2588 72.3595,67.4255 73.5,66.5C 75.5707,64.8149 77.5707,63.1482 79.5,61.5 Z"/></g>
<g><path style="opacity:1" fill="#fefffe" d="M 89.5,66.5 C 90.3297,75.324 90.8297,84.324 91,93.5C 91.2735,95.3289 92.1068,96.8289 93.5,98C 85.8406,98.4997 78.1739,98.6664 70.5,98.5C 72.0488,89.5895 72.8822,80.5895 73,71.5C 79.5119,73.1626 85.0119,71.496 89.5,66.5 Z"/></g>
<g><path style="opacity:1" fill="#fefffe" d="M 63.5,94.5 C 66.6741,94.9522 67.0075,95.9522 64.5,97.5C 62.4807,96.8671 62.1474,95.8671 63.5,94.5 Z"/></g>
<g><path style="opacity:1" fill="#fefffe" d="M 97.5,94.5 C 100.674,94.9522 101.007,95.9522 98.5,97.5C 97.6143,96.675 97.281,95.675 97.5,94.5 Z"/></g>
<g><path style="opacity:1" fill="#fefffe" d="M 60.5,99.5 C 74.6577,99.0187 88.6577,99.5187 102.5,101C 88.1667,101.667 73.8333,101.667 59.5,101C 60.056,100.617 60.3893,100.117 60.5,99.5 Z"/></g>
<g><path style="opacity:1" fill="#fefffe" d="M 131.5,100.5 C 133.687,101.049 134.354,102.215 133.5,104C 127.891,106.319 122.224,108.486 116.5,110.5C 114.404,109.38 114.07,107.88 115.5,106C 121.041,104.378 126.374,102.544 131.5,100.5 Z"/></g>
<g><path style="opacity:1" fill="#fefffe" d="M 61.5,103.5 C 74.3268,102.34 87.3268,102.173 100.5,103C 94.1635,104.15 87.6635,104.65 81,104.5C 74.4229,104.481 67.9229,104.148 61.5,103.5 Z"/></g>
<g><path style="opacity:1" fill="#fefffe" d="M 51.5,107.5 C 71.3291,106.338 91.3291,106.171 111.5,107C 114.305,110.724 113.638,112.891 109.5,113.5C 104.42,123.158 99.7538,132.991 95.5,143C 100.939,143.636 106.272,143.136 111.5,141.5C 111.889,145.532 110.889,149.366 108.5,153C 91.1667,153.667 73.8333,153.667 56.5,153C 54.2137,151.083 52.8803,148.583 52.5,145.5C 57.8577,144.776 63.191,143.943 68.5,143C 69.3992,141.764 70.5659,140.93 72,140.5C 81.4301,146.54 89.7634,145.207 97,136.5C 100.05,130.731 100.216,124.897 97.5,119C 98.628,116.704 100.295,114.871 102.5,113.5C 103.429,112.311 103.762,110.978 103.5,109.5C 93.5921,107.75 83.9255,108.583 74.5,112C 70.6437,114.378 67.9771,117.711 66.5,122C 61.2881,124.189 56.4548,127.023 52,130.5C 51.9902,127.537 52.9902,124.871 55,122.5C 59.2952,118.514 63.7952,115.014 68.5,112C 68.3552,111.228 68.0219,110.561 67.5,110C 62.103,109.487 56.7696,108.653 51.5,107.5 Z"/></g>
<g><path style="opacity:1" fill="#fefffe" d="M 135.5,106.5 C 137.199,106.34 138.866,106.506 140.5,107C 135.82,118.347 128.82,128.013 119.5,136C 115.533,138.768 111.2,140.102 106.5,140C 120.934,132.97 130.6,121.804 135.5,106.5 Z"/></g>
<g><path style="opacity:1" fill="#fefffe" d="M 129.5,107.5 C 130.675,107.281 131.675,107.614 132.5,108.5C 128.285,118.552 121.952,127.052 113.5,134C 109.435,136.356 105.102,137.689 100.5,138C 103.945,130.939 107.279,123.773 110.5,116.5C 116.816,113.293 123.149,110.293 129.5,107.5 Z"/></g>
<g><path style="opacity:1" fill="#fefffe" d="M 19.5,109.5 C 27.1245,110.848 34.7912,112.014 42.5,113C 34.5257,116.486 27.859,121.653 22.5,128.5C 20.9309,127.286 20.0976,125.619 20,123.5C 19.5008,118.845 19.3342,114.179 19.5,109.5 Z"/></g>
<g><path style="opacity:1" fill="#fefffe" d="M 47.5,109.5 C 48.675,109.281 49.675,109.614 50.5,110.5C 49.07,113.433 47.07,115.933 44.5,118C 37.7245,122.11 31.2245,126.61 25,131.5C 24.3333,130.833 24.3333,130.167 25,129.5C 30.5426,122.451 37.376,117.118 45.5,113.5C 46.3624,112.234 47.0291,110.901 47.5,109.5 Z"/></g>
<g><path style="opacity:1" fill="#fefffe" d="M 53.5,110.5 C 57.4724,111.108 61.4724,111.608 65.5,112C 53.4565,117.568 47.1232,127.068 46.5,140.5C 39.2727,140.475 32.106,141.142 25,142.5C 23.8333,142.167 22.6667,141.833 21.5,141.5C 23.5458,136.95 26.5458,133.117 30.5,130C 39.8039,125.36 47.4705,118.86 53.5,110.5 Z"/></g>
<g><path style="opacity:1" fill="#fefffe" d="M 97.5,110.5 C 98.8734,110.343 100.207,110.51 101.5,111C 99.8333,112.5 98.1667,114 96.5,115.5C 84.0257,120.046 71.6924,124.879 59.5,130C 56.2488,133.419 53.5821,137.253 51.5,141.5C 50.5,141 49.5,140.5 48.5,140C 50.5,137 52.5,134 54.5,131C 65.1285,124.688 76.4618,120.021 88.5,117C 91.9614,115.357 94.9614,113.19 97.5,110.5 Z"/></g>
<g><path style="opacity:1" fill="#fefffe" d="M 86.5,111.5 C 93.9951,111.624 93.8284,112.958 86,115.5C 85.5,115.333 85,115.167 84.5,115C 85.8228,114.184 86.4894,113.017 86.5,111.5 Z"/></g>
<g><path style="opacity:1" fill="#fefffe" d="M 78.5,112.5 C 80.1992,112.34 81.8659,112.506 83.5,113C 81.9632,114.11 81.2965,115.61 81.5,117.5C 77.4017,118.265 73.4017,119.098 69.5,120C 72.1293,116.854 75.1293,114.354 78.5,112.5 Z"/></g>
<g><path style="opacity:1" fill="#fefffe" d="M 137.5,116.5 C 139.045,117.23 139.878,118.563 140,120.5C 140.499,126.491 140.666,132.491 140.5,138.5C 133.492,138.666 126.492,138.5 119.5,138C 127.558,132.452 133.558,125.285 137.5,116.5 Z"/></g>
<g><path style="opacity:1" fill="#fefffe" d="M 92.5,119.5 C 95.8296,120.446 97.4963,122.78 97.5,126.5C 94.1358,141.014 85.8025,144.847 72.5,138C 78.1094,130.552 84.7761,124.385 92.5,119.5 Z"/></g>
<g><path style="opacity:1" fill="#fefffe" d="M 80.5,123.5 C 81.2389,123.369 81.9056,123.536 82.5,124C 76.785,129.048 71.785,134.714 67.5,141C 53.0636,145.044 51.0636,142.044 61.5,132C 67.879,129.008 74.2123,126.174 80.5,123.5 Z"/></g>
<g><path style="opacity:1" fill="#fefffe" d="M -0.5,131.5 C 6.67281,171.67 30.0061,196.67 69.5,206.5C 46.1667,206.5 22.8333,206.5 -0.5,206.5C -0.5,181.5 -0.5,156.5 -0.5,131.5 Z"/></g>
<g><path style="opacity:1" fill="#fefffe" d="M 165.5,133.5 C 165.5,157.833 165.5,182.167 165.5,206.5C 142.167,206.5 118.833,206.5 95.5,206.5C 134.142,196.858 157.475,172.524 165.5,133.5 Z"/></g>
<g><path style="opacity:1" fill="#fefffe" d="M 55.5,154.5 C 57.288,154.215 58.9547,154.548 60.5,155.5C 59.6667,155.833 58.8333,156.167 58,156.5C 56.6244,156.316 55.7911,155.649 55.5,154.5 Z"/></g>
<g><path style="opacity:1" fill="#fefffe" d="M 62.5,154.5 C 67.5,154.5 72.5,154.5 77.5,154.5C 77.5,155.833 77.5,157.167 77.5,158.5C 80.8333,158.5 84.1667,158.5 87.5,158.5C 87.5,157.167 87.5,155.833 87.5,154.5C 92.1667,154.5 96.8333,154.5 101.5,154.5C 101.5,158.167 101.5,161.833 101.5,165.5C 88.5,165.5 75.5,165.5 62.5,165.5C 62.5,161.833 62.5,158.167 62.5,154.5 Z"/></g>
<g><path style="opacity:1" fill="#fefffe" d="M 79.5,154.5 C 81.604,154.201 83.604,154.534 85.5,155.5C 84.5,155.833 83.5,156.167 82.5,156.5C 80.9704,156.36 79.9704,155.693 79.5,154.5 Z"/></g>
<g><path style="opacity:1" fill="#fefffe" d="M 103.5,154.5 C 105.288,154.215 106.955,154.548 108.5,155.5C 107.667,155.833 106.833,156.167 106,156.5C 104.624,156.316 103.791,155.649 103.5,154.5 Z"/></g>
<g><path style="opacity:1" fill="#fefffe" d="M 60.5,167.5 C 75.1667,167.5 89.8333,167.5 104.5,167.5C 102.308,179.526 95.1412,184.859 83,183.5C 70.3745,185.374 62.8745,180.041 60.5,167.5 Z"/></g>
</svg>

<svg xmlns="http://www.w3.org/2000/svg" width="166" height="207" style="shape-rendering:geometricPrecision;text-rendering:geometricPrecision;image-rendering:optimizeQuality;fill-rule:evenodd;clip-rule:evenodd"><path style="opacity:1" d="M-.5-.5h166v134c-8.025 39.024-31.358 63.358-70 73h-26c-39.494-9.83-62.827-34.83-70-75V-.5z"/><path style="opacity:1" fill="#fe9900" d="M3.5 3.5h158v47H3.5v-47z"/><path style="opacity:1" fill="#0f0401" d="M17.5 13.5c4.005.056 7.505 1.39 10.5 4a673.63 673.63 0 0 1 5-3c2.398 1.5 5.065 2.166 8 2 4.3-.93 8.633-1.93 13-3 4.185.838 8.352 1.838 12.5 3a30.748 30.748 0 0 0 6.5-2c1.971-.032 3.471.802 4.5 2.5 2.724.27 5.39.77 8 1.5a10.76 10.76 0 0 0 3-2.5 289.236 289.236 0 0 1 34 0 1101.525 1101.525 0 0 0 37 25c-25.457 4.821-50.123 2.321-74-7.5a16.869 16.869 0 0 0-8-1c-.23 2.965-1.897 4.298-5 4-2.111.014-3.945-.653-5.5-2a46.097 46.097 0 0 1-13 3 101.457 101.457 0 0 1-13.5-3c-2.82.078-5.487.745-8 2-2.544-2.238-5.21-2.405-8-.5-13.345 1.829-18.344-3.671-15-16.5 2.017-2.994 4.684-4.994 8-6z"/><path style="opacity:1" fill="#cb0000" d="M52.5 15.5c1.32 2.928 1.986 6.261 2 10l-1 10c-.997-6.634-1.33-13.3-1-20zM14.5 16.5c3.35-.165 6.683.002 10 .5l1.5 1.5a49.248 49.248 0 0 1 0 14c-8.386 4.81-13.886 2.477-16.5-7 .421-3.74 2.088-6.74 5-9zM32.5 16.5c.617.11 1.117.444 1.5 1 .5 5.657.666 11.324.5 17h-4c-.553-6.292.114-12.292 2-18zM48.5 16.5c1.318 2.758 1.985 5.924 2 9.5l-.5 9.5c-3.475-2.318-7.308-3.318-11.5-3v-14a32.437 32.437 0 0 0 8-.5c.916-.278 1.583-.778 2-1.5zM55.5 16.5c3.383-.243 6.55.424 9.5 2 .5 4.989.666 9.989.5 15l-10 2v-19zM70.5 16.5c1.644-.213 3.144.12 4.5 1 .5 5.657.666 11.324.5 17-1.967.24-3.8-.094-5.5-1a53.438 53.438 0 0 1 .5-17z"/><path style="opacity:1" fill="#003266" d="M90.5 17.5c10.339-.166 20.672 0 31 .5a416.464 416.464 0 0 1 32 22c-22.962 2.544-45.295.044-67-7.5.29-3.606-.044-7.106-1-10.5 2.16-.996 3.827-2.496 5-4.5zM77.5 19.5c2.357-.163 4.69.003 7 .5a26.61 26.61 0 0 1-2 3.5c-2.323-1.22-3.656-.387-4 2.5 1.539 3.007 3.372 3.174 5.5.5.493 1.634.66 3.3.5 5h-7v-12z"/><path style="opacity:1" d="M106.5 19.5a32.438 32.438 0 0 1 8 .5c2.65 2.082 2.316 3.749-1 5-3.881 1.058-6.881-.108-9-3.5a30.968 30.968 0 0 0 2-2z"/><path style="opacity:1" fill="#003266" d="M107.5 22.5c2.128-1.13 4.461-1.296 7-.5-2.286 1.664-4.619 1.83-7 .5zM3.5 53.5h158c.167 27.669 0 55.335-.5 83-3.691 19.544-13.191 35.711-28.5 48.5-18.683 15.007-40.017 20.673-64 17-29.065-6.733-49.231-23.899-60.5-51.5a102.653 102.653 0 0 1-4-16c-.5-26.998-.667-53.998-.5-81z"/><path style="opacity:1" d="M82.5 58.5c4.048-.059 7.215 1.608 9.5 5l1 28a22.948 22.948 0 0 0 2 5c1.198-3.714 3.531-4.714 7-3a42.744 42.744 0 0 1 2.5 7.5c-.259 1.261-.926 2.261-2 3 4 .667 8 .667 12 0a265.384 265.384 0 0 1 17.5-5.5c3.082.249 4.582 1.915 4.5 5 2.823-.475 4.823.525 6 3-2.365 3.54-2.532 7.207-.5 11 .5 7.659.666 15.326.5 23h-28a89.704 89.704 0 0 1-4 18h-7c-.202 3.96.798 7.46 3 10.5-3.344 12.54-11.344 18.04-24 16.5-12.869 1.493-20.869-4.173-24-17 1.68-3.071 2.347-6.404 2-10-2.292.256-4.46-.077-6.5-1a288.34 288.34 0 0 0-5.5-14.5 169.289 169.289 0 0 0-23 1.5c-2.864.114-5.53-.386-8-1.5a72.475 72.475 0 0 1 3-11.5c-3.62-7.669-4.62-15.669-3-24a106.699 106.699 0 0 0 28 1.5c4.129-3.935 9.129-5.602 15-5l-3-2.5a17.343 17.343 0 0 0 3.5-7c2.667-2.667 5.333-2.667 8 0a270.99 270.99 0 0 0 2-28 6.975 6.975 0 0 1 2.5-3.5c2.962-1.85 5.962-3.35 9-4.5z"/><path style="opacity:1" fill="#fefffe" d="M79.5 61.5c10.106-.315 11.106 2.185 3 7.5-3.075 1.602-6.075 1.602-9 0-1.14-.741-1.14-1.575 0-2.5 2.07-1.685 4.07-3.352 6-5z"/><path style="opacity:1" fill="#fefffe" d="M89.5 66.5a359.66 359.66 0 0 1 1.5 27c.273 1.829 1.107 3.329 2.5 4.5-7.66.5-15.326.666-23 .5a170.3 170.3 0 0 0 2.5-27c6.512 1.663 12.012-.004 16.5-5zM63.5 94.5c3.174.452 3.507 1.452 1 3-2.02-.633-2.353-1.633-1-3zM97.5 94.5c3.174.452 3.507 1.452 1 3-.886-.825-1.219-1.825-1-3zM60.5 99.5c14.158-.481 28.158.019 42 1.5a462.27 462.27 0 0 1-43 0c.556-.383.89-.883 1-1.5zM131.5 100.5c2.187.549 2.854 1.715 2 3.5a338.808 338.808 0 0 1-17 6.5c-2.096-1.12-2.43-2.62-1-4.5a178.764 178.764 0 0 0 16-5.5zM61.5 103.5c12.827-1.16 25.827-1.327 39-.5-6.337 1.15-12.837 1.65-19.5 1.5a199.909 199.909 0 0 1-19.5-1zM51.5 107.5a602.278 602.278 0 0 1 60-.5c2.805 3.724 2.138 5.891-2 6.5a396.44 396.44 0 0 0-14 29.5 38.154 38.154 0 0 0 16-1.5c.389 4.032-.611 7.866-3 11.5a675.912 675.912 0 0 1-52 0c-2.286-1.917-3.62-4.417-4-7.5a390.482 390.482 0 0 0 16-2.5c.9-1.236 2.066-2.07 3.5-2.5 9.43 6.04 17.763 4.707 25-4 3.05-5.769 3.216-11.603.5-17.5 1.128-2.296 2.795-4.129 5-5.5.929-1.189 1.262-2.522 1-4-9.908-1.75-19.575-.917-29 2.5-3.856 2.378-6.523 5.711-8 10a63.309 63.309 0 0 0-14.5 8.5c-.01-2.963.99-5.629 3-8 4.295-3.986 8.795-7.486 13.5-10.5a3.942 3.942 0 0 0-1-2 134.198 134.198 0 0 1-16-2.5z"/><path style="opacity:1" fill="#fefffe" d="M135.5 106.5a12.93 12.93 0 0 1 5 .5c-4.68 11.347-11.68 21.013-21 29-3.967 2.768-8.3 4.102-13 4 14.434-7.03 24.1-18.196 29-33.5z"/><path style="opacity:1" fill="#fefffe" d="M129.5 107.5c1.175-.219 2.175.114 3 1-4.215 10.052-10.548 18.552-19 25.5-4.065 2.356-8.398 3.689-13 4a640.762 640.762 0 0 0 10-21.5 378.685 378.685 0 0 1 19-9zM19.5 109.5a486.942 486.942 0 0 0 23 3.5c-7.974 3.486-14.641 8.653-20 15.5-1.57-1.214-2.402-2.881-2.5-5a98.432 98.432 0 0 1-.5-14zM47.5 109.5c1.175-.219 2.175.114 3 1a21.754 21.754 0 0 1-6 7.5A196.526 196.526 0 0 0 25 131.5c-.667-.667-.667-1.333 0-2 5.543-7.049 12.376-12.382 20.5-16a16.314 16.314 0 0 0 2-4zM53.5 110.5a220.45 220.45 0 0 0 12 1.5c-12.044 5.568-18.377 15.068-19 28.5a112.209 112.209 0 0 0-21.5 2l-3.5-1c2.046-4.55 5.046-8.383 9-11.5 9.304-4.64 16.97-11.14 23-19.5zM97.5 110.5a8.43 8.43 0 0 1 4 .5l-5 4.5a824.944 824.944 0 0 0-37 14.5 45.933 45.933 0 0 0-8 11.5l-3-1.5 6-9a126.56 126.56 0 0 1 34-14c3.461-1.643 6.461-3.81 9-6.5z"/><path style="opacity:1" fill="#fefffe" d="M86.5 111.5c7.495.124 7.328 1.458-.5 4l-1.5-.5c1.323-.816 1.99-1.983 2-3.5zM78.5 112.5c1.7-.16 3.366.006 5 .5-1.537 1.11-2.204 2.61-2 4.5a287.48 287.48 0 0 0-12 2.5c2.63-3.146 5.63-5.646 9-7.5zM137.5 116.5c1.545.73 2.378 2.063 2.5 4 .499 5.991.666 11.991.5 18-7.008.166-14.008 0-21-.5 8.058-5.548 14.058-12.715 18-21.5zM92.5 119.5c3.33.946 4.996 3.28 5 7-3.364 14.514-11.698 18.347-25 11.5 5.61-7.448 12.276-13.615 20-18.5zM80.5 123.5a2.429 2.429 0 0 1 2 .5 90.942 90.942 0 0 0-15 17c-14.436 4.044-16.436 1.044-6-9a570.848 570.848 0 0 1 19-8.5zM-.5 131.5c7.173 40.17 30.506 65.17 70 75h-70v-75zM165.5 133.5v73h-70c38.642-9.642 61.975-33.976 70-73zM55.5 154.5c1.788-.285 3.455.048 5 1l-2.5 1c-1.376-.184-2.209-.851-2.5-2zM62.5 154.5h15v4h10v-4h14v11h-39v-11z"/><path style="opacity:1" fill="#fefffe" d="M79.5 154.5a9.86 9.86 0 0 1 6 1l-3 1c-1.53-.14-2.53-.807-3-2zM103.5 154.5c1.788-.285 3.455.048 5 1l-2.5 1c-1.376-.184-2.209-.851-2.5-2zM60.5 167.5h44c-2.192 12.026-9.359 17.359-21.5 16-12.626 1.874-20.126-3.459-22.5-16z"/></svg>
